X:1
T: Apple Tree
C:
R:Reel
I:speed 232
Q:232
K:A
M:4/4
L:1/8
|:A2a2 fe cB|Aa ga fe dc|Bc de fB Bc|Bc de fe fa|
A2a2 fe cB|Aa ga fe dc|Bc de fB Ba|ge fg a2A2|
EA AB cB AG|EA AB cB AG|FB Bc dc BA|GA Bc de fe|
EA AB cB AG|EA AB cB AG|FB Bc dc BA|GE FG A2A2:|
